X: 40012
T: Three Peaks Of South Uist, The
R: reel
M: 4/4
K: Adorian
|:AeeB d2e2|AeeA BGGB|AeeB d2e2|dged BGGB:|
|:A2a2 geea|A2g2 BGGB|1 A2a2 geea|gedg BGGB:|2 AeeB d2e2|dged BGGB||
|:GBBd d2e2|dged BGGB|1 GBBd d2e2|dgfd feeg:|2 A2a2 geea|gedg BGGa||
geeg a2ea|gedg BGGa|geeg a2ea|gedB BAAa|
geeg a2ea|gedg BGGB|AeeB d2e2|dedB AA A2||

